src/static/ferrari.svg

<svg width="220" height="40" viewBox="0 0 220 40" fill="none" xmlns="http://www.w3.org/2000/svg">
<path d="M157.985 31.52V15.52C157.985 10.56 155.275 9.6 147.623 9.6C139.333 9.6 136.464 10.72 136.464 16.48V19.04H143.478V16.96C143.478 14.08 143.638 13.6 147.304 13.6C150.333 13.6 150.493 13.92 150.493 16.96V22.72H143.159C137.42 22.72 135.667 25.44 135.667 28.64H142.841V28.48C142.841 27.04 143.797 25.76 145.232 25.76H150.652V32.16C150.652 34.4 149.536 34.88 147.942 34.88H145.072C143.319 34.88 142.681 33.76 142.681 32.16V28.64H135.507V32.64C135.507 36 138.058 38.72 142.043 38.72H160.855V34.4H157.985V31.52ZM216.333 34.56V10.24H205.652V14.24H208.681V34.56H205.652V38.72H219.203V34.56H216.333V34.56ZM189.391 9.6C185.406 9.6 182.855 14.56 181.101 16.64V10.08H170.58V14.08H173.449V34.4H170.58V38.72H183.652V34.4H180.942V23.52C180.942 22.56 187.159 14.72 187.159 15.52V26.4H194.493V14.24C194.493 11.36 192.739 9.6 189.391 9.6ZM48.6232 23.36H41.1304V15.68C41.1304 14.24 41.6087 13.44 43.3623 13.44H46.5507C47.8261 13.44 48.6232 14.08 48.6232 15.04V23.36V23.36ZM45.4348 9.6H44.3188C35.7101 9.6 33.4783 11.52 33.4783 16.48V32.48C33.4783 37.92 36.6667 38.88 44.4783 39.04H45.2754C53.7246 38.88 56.2754 38.24 56.2754 33.12V28.96H48.942V31.04C48.942 33.92 48.4638 34.08 44.9565 34.08C40.8116 34.08 40.971 33.76 41.1304 31.04V26.08H56.4348V15.36C56.4348 11.36 53.4058 9.6 45.4348 9.6ZM208.841 5.12H216.652V0H208.841V5.12ZM1.11594 5.12H5.57971V35.36H0V39.52H20.7246V35.36H13.7101V21.92H17.6957V25.76H22.4783V13.76H17.6957V17.28H13.7101V5.12H202.783V0H1.11594V5.12ZM85.7681 9.6C81.7826 9.6 79.2319 14.56 77.4783 16.64V10.08H66.9565V14.08H69.8261V34.4H66.9565V38.72H80.029V34.4H77.3188V23.52C77.3188 22.56 83.5362 14.72 83.5362 15.52V26.4H90.8696V14.24C90.8696 11.36 89.1159 9.6 85.7681 9.6ZM119.246 9.6C115.261 9.6 112.71 14.56 110.957 16.64V10.08H100.435V14.08H103.304V34.4H100.435V38.72H113.507V34.4H110.797V23.52C110.797 22.56 117.014 14.72 117.014 15.52V26.4H124.348V14.24C124.348 11.36 122.594 9.6 119.246 9.6Z" fill="black"/>
</svg>

<svg xmlns="http://www.w3.org/2000/svg" viewBox="0 0 220 40">
  <path d="M157.985 31.52v-16c0-4.96-2.71-5.92-10.362-5.92-8.29 0-11.159 1.12-11.159 6.88v2.56h7.014v-2.08c0-2.88.16-3.36 3.826-3.36 3.029 0 3.189.32 3.189 3.36v5.76h-7.334c-5.739 0-7.492 2.72-7.492 5.92h7.174v-.16c0-1.44.956-2.72 2.391-2.72h5.42v6.4c0 2.24-1.116 2.72-2.71 2.72h-2.87c-1.753 0-2.391-1.12-2.391-2.72v-3.52h-7.174v4c0 3.36 2.551 6.08 6.536 6.08h18.812V34.4h-2.87v-2.88zm58.348 3.04V10.24h-10.681v4h3.029v20.32h-3.029v4.16h13.551v-4.16h-2.87zM189.391 9.6c-3.985 0-6.536 4.96-8.29 7.04v-6.56H170.58v4h2.869V34.4h-2.869v4.32h13.072V34.4h-2.71V23.52c0-.96 6.217-8.8 6.217-8V26.4h7.334V14.24c0-2.88-1.754-4.64-5.102-4.64zM48.623 23.36H41.13v-7.68c0-1.44.479-2.24 2.232-2.24h3.189c1.275 0 2.072.64 2.072 1.6v8.32zM45.435 9.6h-1.116c-8.609 0-10.84 1.92-10.84 6.88v16c0 5.44 3.188 6.4 11 6.56h.796c8.45-.16 11-.8 11-5.92v-4.16h-7.333v2.08c0 2.88-.478 3.04-3.986 3.04-4.144 0-3.985-.32-3.826-3.04v-4.96h15.305V15.36c0-4-3.03-5.76-11-5.76zM208.84 5.12h7.811V0h-7.811v5.12zm-207.725 0H5.58v30.24H0v4.16h20.725v-4.16H13.71V21.92h3.986v3.84h4.782v-12h-4.782v3.52H13.71V5.12h189.073V0H1.116v5.12zM85.768 9.6c-3.985 0-6.536 4.96-8.29 7.04v-6.56H66.957v4h2.87V34.4h-2.87v4.32h13.072V34.4h-2.71V23.52c0-.96 6.217-8.8 6.217-8V26.4h7.334V14.24c0-2.88-1.754-4.64-5.102-4.64zm33.478 0c-3.985 0-6.536 4.96-8.289 7.04v-6.56h-10.522v4h2.869V34.4h-2.869v4.32h13.072V34.4h-2.71V23.52c0-.96 6.217-8.8 6.217-8V26.4h7.334V14.24c0-2.88-1.754-4.64-5.102-4.64z"/>
</svg>
